X: 24464
T: Lucky Lucky Day
R: slip jig
M: 9/8
K: Gmajor
|GDG A~B2 dBe|d2A B2d BAB|GDG A~B2 dBe|dge d2A BAB|
GDG A~B2 dBe|d2A B2d BAB|~G3 A~B2 dBe|dge d2A BAB|
|:GDG A~B2 GAB|ded BAB def|g2a bg2 dBd|ede fgf edB|
A2B dA2 d2e|dBA ABd deg|abe de2 ABd|ede g2e dBA:|
|:e2B de2 ABd|edB ABd EGB|AGA Bd2 ABd|eda ded ged|
e2B de2 gfd|edB dgf dBG|A2A BdA Bde|1 dAB ded ABd:|2 dAB ded BAB||

